icon/gr/diamond.svg

<svg xmlns="http://www.w3.org/2000/svg" width="24" height="24"><path fill="none" stroke="#000" stroke-width="2" d="M6 3h12l4 6-10 12L2 9l4-6ZM2 9h20M11 3 7 9l5 11m1-17 4 6-5 11"/></svg>

<svg xmlns="http://www.w3.org/2000/svg" viewBox="0 0 24 24" height="1em" width="1em">
  <path fill="none" stroke="#000" stroke-width="2" d="M6,3 L18,3 L22,9 L12,21 L2,9 L6,3 Z M2,9 L22,9 M11,3 L7,9 L12,20 M13,3 L17,9 L12,20"/>
</svg>
